svg/news.svg

<svg xmlns="http://www.w3.org/2000/svg" viewBox="0 0 32 32"><path d="M3 5v18c0 2.21 1.79 4 4 4h18c2.21 0 4-1.79 4-4V12h-6V5H3zm2 2h16v16c0 .73.22 1.41.563 2H7c-1.19 0-2-.81-2-2V7zm2 2v5h12V9H7zm2 2h8v1H9v-1zm14 3h4v9c0 1.19-.81 2-2 2s-2-.81-2-2v-9zM7 15v2h5v-2H7zm7 0v2h5v-2h-5zm-7 3v2h5v-2H7zm7 0v2h5v-2h-5zm-7 3v2h5v-2H7zm7 0v2h5v-2h-5z"/></svg>

<svg xmlns="http://www.w3.org/2000/svg" viewBox="0 0 32 32" enable-background="new 0 0 32 32"><path d="M 3 5 L 3 6 L 3 23 C 3 25.209804 4.7901961 27 7 27 L 25 27 C 27.209804 27 29 25.209804 29 23 L 29 13 L 29 12 L 28 12 L 23 12 L 23 6 L 23 5 L 22 5 L 4 5 L 3 5 z M 5 7 L 21 7 L 21 12 L 21 13 L 21 23 C 21 23.73015 21.221057 24.41091 21.5625 25 L 7 25 C 5.8098039 25 5 24.190196 5 23 L 5 7 z M 7 9 L 7 10 L 7 13 L 7 14 L 8 14 L 18 14 L 19 14 L 19 13 L 19 10 L 19 9 L 18 9 L 8 9 L 7 9 z M 9 11 L 17 11 L 17 12 L 9 12 L 9 11 z M 23 14 L 27 14 L 27 23 C 27 24.190196 26.190196 25 25 25 C 23.809804 25 23 24.190196 23 23 L 23 14 z M 7 15 L 7 17 L 12 17 L 12 15 L 7 15 z M 14 15 L 14 17 L 19 17 L 19 15 L 14 15 z M 7 18 L 7 20 L 12 20 L 12 18 L 7 18 z M 14 18 L 14 20 L 19 20 L 19 18 L 14 18 z M 7 21 L 7 23 L 12 23 L 12 21 L 7 21 z M 14 21 L 14 23 L 19 23 L 19 21 L 14 21 z"/></svg>
